X:1
T: The Green Trees of Athol
C:
R:Reel
Q: 232
K:D
M:4/4
L:1/8
|:dD DF ED Ef|ge fd ed Be|dD DF ED Eg|fd ef ((3ddd) d2|
dD DF ED Ef|ge fd ed Be|dD DF ED Eg|fd ef ((3ddd) d2|
gf ge d2 ef|gf ga bg af|((3ggg) ge d2 de|fd cA BG G2|
gf ge d2 ef|gf ga bg af|((3ggg) ge d2 de|fd cA BG G2:|
